X: 24097
T: Long Rain, The
R: reel
M: 4/4
K: Edorian
|:E3F GFGA|Beef edBc|d2de dBAB|dBAF GFED|
E3F GFGA|Beef edBc|d2de dBAF|GFED E4:|
|:g2fe B2BA|Beed edef|g2fe =c3B|=cBcd edef|
g2fe B2BA|Beed e2dB|A2A=c BAFA|GEFD E4:|

